icons/op-compare2-24.svg

<svg width="24" height="24" viewBox="0 0 24 24" fill="none" xmlns="http://www.w3.org/2000/svg">
<path d="M9.53299 15.5938H14.3756V16.8125H9.53299V15.5938ZM12.5482 9.59375V7.71875H11.3604V9.59375H9.53299V10.8125H11.3604V12.6875H12.5482V10.8125H14.3756V9.59375H12.5482ZM18 7.71875L14.3756 4H6V20H18V7.71875ZM7.40102 18.5625V5.4375H13.797L16.599 8.3125V18.5625H7.40102Z" fill="black"/>
</svg>

<svg xmlns="http://www.w3.org/2000/svg" width="24" height="24" viewBox="0 0 24 24"><path d="M9.533 15.594h4.843v1.218H9.533v-1.218Zm3.015-6V7.719H11.36v1.875H9.533v1.218h1.827v1.876h1.188v-1.876h1.828V9.594h-1.828ZM18 7.719 14.376 4H6v16h12V7.719ZM7.401 18.562V5.438h6.396l2.802 2.874v10.25H7.401Z"/></svg>
